!!!COM: Mozart
!!!OTL: 8 Variationen uber das Lied "Ein Weib ist das herrlichste Ding"
!!!Variation: Variation 2 d
**function	**harm	**kern	**kern
*	*	*clefF4	*clefG2
*	*	*k[b-]	*k[b-]
*M3/4	*M3/4	*M3/4	*M3/4
*F:	*F:	*F:	*F:
4T	F:7/b7	8B-L	4c
.	.	8GJ	.
=128	=128	=128	=128
2.T	B-:maj/3	8AL	4f
.	.	8cJ	.
.	.	8B-L	4c
.	.	8AJ	.
.	.	8GL	(8.fL
.	.	8FJ	.
.	.	.	32eLL
.	.	.	32fJJJ
=129	=129	=129	=129
2.T	F:maj/3	8EL	4g
.	.	8DJ	.
.	.	8CL	4c)
.	.	8BB-J	.
.	.	8AAL	(8.gL
.	.	8GGJ	.
.	.	.	32fLL
.	.	.	32gJJJ
=130	=130	=130	=130
4T	B-:maj	8FFL	4a
.	.	8EEJ	.
4T	G:min	8DDL	4f)
.	.	8CCJ	.
*	*	*	*^
4T	C:min	8BBB-L	4g	4b-
.	.	8GGGJ	.	.
=131	=131	=131	=131	=131
4T	B-:maj/5	8CC'L)	(4f	4a
.	.	(8CJ	.	.
4T	F:maj	8DL	4e)	4g
.	.	8CJ	.	.
*	*	*	*v	*v
4T	F:7/b7	8BBL	4cc
.	.	8BB-J)	.
=132	=132	=132	=132
.	.	.	(q32b
.	.	.	q32cc
.	.	.	q32dd
4T	B-:maj/3	(8AAL	(4cc)
.	.	8FJ	.
4T	A:dim/b3	8GGL	4b-
.	.	8EJ	.
4T	B-:maj	8FFL	4a)
.	.	8FJ)	.
=133	=133	=133	=133
*	*	*^	*
2.T	C:min/b3	(8BB-L	2.BB-	(4dd
.	.	8DJ	.	.
.	.	8F#L	.	8ccL
.	.	8GJ	.	8b-J
.	.	8AL	.	8aL
.	.	8B-J)	.	8gJ)
*	*	*v	*v	*
=134	=134	=134	=134
4T	B-:maj/5	(8CL	(4A 4f
.	.	8DJ	.
8T	C:min7/b3	8BB-L	4d) 4f 4g
8T	C:7/3	8BBJ	.
4T	F:maj	8CL)	4e 4cc
.	.	8CC'J	.
=135	=135	=135	=135
2T	G:min	8DD'L	(4g 4b-
.	.	(8c#J	.
.	.	8eL	4f) 4a
.	.	8dJ	.
4T	F:7/b7	8cL	4e 4g 4cc
.	.	8B-J	.
=136	=136	=136	=136
.	.	.	(q32b
.	.	.	q32cc
.	.	.	q32dd
4T	B-:maj/3	8AL	(4cc)
.	.	8fJ	.
4T	A:dim/b3	8GL	4b-
.	.	8eJ	.
4T	B-:maj	8FL	4a)
.	.	8fJ)	.
=137	=137	=137	=137
*	*	*^	*
2.P	C:min7/b3	(8BB-L	2.BB-	(4dd 4ff
.	.	8DJ	.	.
.	.	8F#L	.	8ccL 8ee
.	.	8GJ	.	8b-J 8dd
.	.	8AL	.	8aL 8cc
.	.	8B-J)	.	8gJ) 8b-
*	*	*v	*v	*
=138	=138	=138	=138
4D	B-:maj/5	(8CL	(4f 4a
.	.	8DJ	.
4D	C:min	8BB-L	4g) 4b-
.	.	8GGJ	.
4D	F:7	8CL	4B- 4e 4g
.	.	8CCJ)	.
=139	=139	=139	=139
2T	B-:maj	4FF	4A 4f
.	.	4F	4r
*-	*-	*-	*-
!!!EMD: Edited in humdrumR 0.7.0.3 on 2024-01-19
